X:1
T:The Heights of Cadair Idris
R:Air
M:3/4
L:1/8
K:Gmaj
d2|"G"g2 d2 B2|G3A B2|"C"c2 e2 ag|"D"f2 d2 f2|"G"g2>d2 B2|"C"c3d e2|"G"d2 g2 "D"f2|"G"g4:|
ga|"G"b2 g2 b2|"D"a2 f2 d2|"C"e2>f2 ga|"D"f2 d2 ga|"G"b2 g2 b2|"D"a2 f2 d2|"A7"g2 f2 e2|"D"d4 ef||
"G"g2 d2 BA|G3A B2|"C"c2 e2 ag|"D"f2 d2 f2|"G"g2 d2 B2|"C"c3d e2|"G"d2 g2 "D"f2|"G"g4||
